X:383
T:Rose of Old Kentucky
C:Alan Bibey
N:Transcribed by Steve Keating
R:bluegrass
L:1/8
Q:1/4=240
M:4/4
K:G
"G"z2 D2 D2 E2 | EG GG G2 GA | BA Gd ^A/B/=A GE | "C"G2 ^Ac c[ec] [e2e2c2] | [e2e2c2] c^A G=A Bc | 
"G"Ac dd d2 zd | z2 ed ^A=A GB | "D"AB dA =f^f dB | dB e^A B=A _BA | "G"G=F G2 [GG,][GG,] [GG,][GG,] | 
z^A Bd =A/_B/A GE | "C"G2 [cG][ecG] [cG][ecG] [cG][cG] | [e2c2G2] ^Ac ad' zc' | 
"G"z^a bg =ag =fg | (3"D"d=fd cG ^A/B/G cB | "G"G=F G4 DD | =FE ^D2 =D^C DF | 
(3^CD=F C/=C/^A, CC A,B, | G,8 | z8 | z8 | 


